Adwaita++/apps/scalable/radio.svg

<svg enable-background="new" height="128" viewBox="0 0 128 128" width="128" xmlns="http://www.w3.org/2000/svg" xmlns:xlink="http://www.w3.org/1999/xlink">
  <linearGradient id="linearGradient1660" gradientUnits="userSpaceOnUse" x1="8.00003" x2="120.00003" y1="287.99999" y2="287.99999">
    <stop offset="0" stop-color="#ab7007"/>
    <stop offset=".036" stop-color="#f5b918"/>
    <stop offset=".071" stop-color="#bd7b08"/>
    <stop offset=".929" stop-color="#bd7b08"/>
    <stop offset=".964" stop-color="#63452c"/>
    <stop offset="1" stop-color="#ab7007"/>
  </linearGradient>
  <linearGradient id="linearGradient1891" gradientUnits="userSpaceOnUse" x1="8.00003" x2="120.00003" y1="115.99999" y2="115.99999">
    <stop offset="0" stop-color="#ab7007"/>
    <stop offset=".036" stop-color="#f5b918"/>
    <stop offset=".071" stop-color="#3d2b1b"/>
    <stop offset=".929" stop-color="#3d2b1b"/>
    <stop offset=".964" stop-color="#765335"/>
    <stop offset="1" stop-color="#3d2b1b"/>
  </linearGradient>
  <clipPath id="clipPath2024">
    <path d="m6 196h74v98h-74z"/>
  </clipPath>
  <linearGradient id="linearGradient2320" gradientUnits="userSpaceOnUse" x1="28" x2="32" y1="203" y2="203">
    <stop offset="0" stop-color="#9a9996"/>
    <stop offset=".119" stop-color="#c0bfbc"/>
    <stop offset=".351" stop-color="#deddda"/>
    <stop offset=".602" stop-color="#d2d1ce"/>
    <stop offset=".853" stop-color="#bbbab7"/>
    <stop offset="1" stop-color="#9a9996"/>
  </linearGradient>
  <linearGradient id="linearGradient2330" gradientUnits="userSpaceOnUse" x1="37.047" x2="37.047" y1="180.897" y2="186.897">
    <stop offset="0" stop-color="#77767b"/>
    <stop offset=".075" stop-color="#9a9996"/>
    <stop offset=".352" stop-color="#deddda"/>
    <stop offset="1" stop-color="#77767b"/>
  </linearGradient>
  <linearGradient id="linearGradient2340" gradientUnits="userSpaceOnUse" x1="71.047" x2="71.047" y1="181.897" y2="185.897">
    <stop offset="0" stop-color="#77767b"/>
    <stop offset=".075" stop-color="#9a9996"/>
    <stop offset=".352" stop-color="#c1bfb9"/>
    <stop offset="1" stop-color="#77767b"/>
  </linearGradient>
  <radialGradient id="radialGradient2372" cx="183.217" cy="-92.152" gradientTransform="matrix(.94529382 .25329072 -.26736589 .99782308 -14.508154 -46.647674)" gradientUnits="userSpaceOnUse" r="3">
    <stop offset="0" stop-color="#fefefe"/>
    <stop offset=".6" stop-color="#bbbab7"/>
    <stop offset="1" stop-color="#5e5c64"/>
  </radialGradient>
  <g transform="translate(0 -172)">
    <g transform="matrix(.96592583 -.25881905 .25881905 .96592583 -45.653577 29.886976)">
      <path d="m29.047254 183.89715h62.999999" fill="none" stroke="url(#linearGradient2340)" stroke-width="4"/>
      <path d="m29.047253 183.89714h31.999998" fill="none" stroke="url(#linearGradient2330)" stroke-width="6"/>
      <path d="m61.05 181.9h1v4h-1z" opacity=".2"/>
      <circle cx="183.897" cy="-92.047" fill="url(#radialGradient2372)" r="3" transform="rotate(90)"/>
    </g>
    <circle cx="30" cy="200" fill="#77767b" r="4"/>
    <circle cx="30" cy="200" fill="#3d3846" r="4"/>
    <path d="m29.970703 197.97266a2.0002 2.0002 0 0 0 -1.970703 2.02734v6a2.0002 2.0002 0 1 0 4 0v-6a2.0002 2.0002 0 0 0 -2.029297-2.02734z" fill="url(#linearGradient2320)"/>
    <rect fill="#63452c" height="6" rx="2" width="12" x="24" y="204"/>
    <g clip-path="url(#clipPath2024)">
      <rect fill="url(#linearGradient1660)" height="76" rx="8" width="112" x="8" y="212"/>
      <rect fill="#e5a50a" height="72" rx="8" width="112" x="8" y="208"/>
    </g>
    <path d="m80 46.021484v69.978516h32c4.432 0 8-3.568 8-8v-53.978516c0-4.432-3.568-8-8-8z" fill="url(#linearGradient1891)" transform="translate(0 172)"/>
    <path d="m80 36v72h32c4.432 0 8-3.568 8-8v-56c0-4.432-3.568-8-8-8z" fill="#63452c" transform="translate(0 172)"/>
    <rect fill="#bd7b08" height="18" rx="8" width="16" x="92.000008" y="224"/>
    <circle cx="100.000008" cy="232" fill="#e5a50a" r="8"/>
    <circle cx="97.000008" cy="227" fill="#63452c" r="1.313"/>
    <rect fill="#bd7b08" height="6" rx="2" width="6" x="92" y="248"/>
    <rect fill="#e5a50a" height="4" rx="2" width="6" x="92" y="248"/>
    <rect fill="#bd7b08" height="6" rx="2" width="6" x="102" y="248"/>
    <rect fill="#e5a50a" height="4" rx="2" width="6" x="102" y="248"/>
    <rect fill="#bd7b08" height="6" rx="2" width="6" x="92" y="258"/>
    <rect fill="#e5a50a" height="4" rx="2" width="6" x="92" y="258"/>
    <rect fill="#bd7b08" height="6" rx="2" width="6" x="102" y="258"/>
    <rect fill="#e5a50a" height="4" rx="2" width="6" x="102" y="258"/>
    <path d="m43.999997 222a22 22 0 0 0 -12.601562 4h25.230468a22 22 0 0 0 -12.628906-4zm-16.957031 8a22 22 0 0 0 -2.613281 4h39.166015a22 22 0 0 0 -2.648437-4zm-4.1875 8a22 22 0 0 0 -.75586 4h43.791016a22 22 0 0 0 -.730469-4zm-.746094 8a22 22 0 0 0 .730469 4h42.304687a22 22 0 0 0 .75586-4zm2.294922 8a22 22 0 0 0 2.648437 4h33.904297a22 22 0 0 0 2.613281-4zm6.966797 8a22 22 0 0 0 12.628906 4 22 22 0 0 0 12.601562-4z" fill="#63452c"/>
  </g>
</svg>

<svg xmlns="http://www.w3.org/2000/svg" xmlns:xlink="http://www.w3.org/1999/xlink" width="128" height="128" version="1.0" viewBox="0 0 128 128" style="enable-background:new">
 <title id="title4162">
  Adwaita Icon Template
 </title>
 <defs>
  <linearGradient id="linearGradient2544">
   <stop style="stop-color:#ab7007" id="stop2532" offset="0"/>
   <stop id="stop2534" offset=".036" style="stop-color:#f5b918"/>
   <stop style="stop-color:#3d2b1b" id="stop2536" offset=".071"/>
   <stop id="stop2538" offset=".929" style="stop-color:#3d2b1b"/>
   <stop style="stop-color:#765335" id="stop2540" offset=".964"/>
   <stop style="stop-color:#3d2b1b" id="stop2542" offset="1"/>
  </linearGradient>
  <linearGradient id="linearGradient2530">
   <stop id="stop2518" offset="0" style="stop-color:#ab7007"/>
   <stop style="stop-color:#f5b918" id="stop2520" offset=".036"/>
   <stop id="stop2522" offset=".071" style="stop-color:#bd7b08"/>
   <stop style="stop-color:#bd7b08" id="stop2524" offset=".929"/>
   <stop id="stop2526" offset=".964" style="stop-color:#63452c"/>
   <stop id="stop2528" offset="1" style="stop-color:#ab7007"/>
  </linearGradient>
  <linearGradient id="linearGradient2446">
   <stop style="stop-color:#77767b" id="stop2438" offset="0"/>
   <stop id="stop2440" offset=".075" style="stop-color:#9a9996"/>
   <stop style="stop-color:#c1bfb9" id="stop2442" offset=".352"/>
   <stop style="stop-color:#77767b" id="stop2444" offset="1"/>
  </linearGradient>
  <linearGradient id="linearGradient2436">
   <stop style="stop-color:#77767b" id="stop2428" offset="0"/>
   <stop id="stop2430" offset=".075" style="stop-color:#9a9996"/>
   <stop style="stop-color:#deddda" id="stop2432" offset=".352"/>
   <stop style="stop-color:#77767b" id="stop2434" offset="1"/>
  </linearGradient>
  <linearGradient id="linearGradient2386">
   <stop id="stop2374" offset="0" style="stop-color:#fefefe"/>
   <stop style="stop-color:#bbbab7" id="stop2382" offset=".6"/>
   <stop id="stop2384" offset="1" style="stop-color:#5e5c64"/>
  </linearGradient>
  <linearGradient id="linearGradient1099" x1="32" x2="96" y1="236" y2="236" gradientTransform="translate(604.81684,170.58641)" gradientUnits="userSpaceOnUse" xlink:href="#linearGradient1036"/>
  <linearGradient id="linearGradient1036">
   <stop id="stop1032" offset="0" style="stop-color:#d5d3cf"/>
   <stop id="stop1034" offset="1" style="stop-color:#f6f5f4"/>
  </linearGradient>
  <radialGradient id="radialGradient1103" cx="-244" cy="-76" r="32" fx="-244" fy="-76" gradientTransform="matrix(0.88333331,0,0,0.88333331,-460.35018,463.11973)" gradientUnits="userSpaceOnUse" xlink:href="#linearGradient1069"/>
  <linearGradient id="linearGradient1069">
   <stop id="stop1065" offset="0" style="stop-color:#d5d3cf"/>
   <stop id="stop1067-1" offset="1" style="stop-color:#949390"/>
  </linearGradient>
  <linearGradient id="linearGradient1027" x1="64" x2="64" y1="262.5" y2="232" gradientTransform="translate(-470.5864,432.81685)" gradientUnits="userSpaceOnUse" xlink:href="#linearGradient1025"/>
  <linearGradient id="linearGradient1025">
   <stop id="stop1021" offset="0" style="stop-color:#9a9996"/>
   <stop id="stop1023" offset="1" style="stop-color:#77767b"/>
  </linearGradient>
  <clipPath id="clipPath1440" clipPathUnits="userSpaceOnUse">
   <circle style="fill:none;stroke:#000000;stroke-width:2" cx="-134.35" cy="193.747" r="24" transform="rotate(-45)"/>
  </clipPath>
  <clipPath id="clipPath1430" clipPathUnits="userSpaceOnUse">
   <circle style="fill:none;stroke:#000000;stroke-width:2" cx="12" cy="232" r="24"/>
  </clipPath>
  <clipPath id="clipPath1440-9" clipPathUnits="userSpaceOnUse">
   <circle style="fill:none;stroke:#000000;stroke-width:2" cx="-134.35" cy="193.747" r="24" transform="rotate(-45)"/>
  </clipPath>
  <clipPath id="clipPath1430-1" clipPathUnits="userSpaceOnUse">
   <circle style="fill:none;stroke:#000000;stroke-width:2" cx="12" cy="232" r="24"/>
  </clipPath>
  <linearGradient id="linearGradient1660" x1="88.596" x2="536.596" y1="-449.394" y2="-449.394" gradientTransform="matrix(0.25,0,0,0.25,-14.14897,400.34849)" gradientUnits="userSpaceOnUse" xlink:href="#linearGradient2530"/>
  <linearGradient id="linearGradient1891" x1="88.596" x2="536.596" y1="-449.394" y2="-449.394" gradientTransform="matrix(0.25,0,0,0.25,-14.14897,228.34849)" gradientUnits="userSpaceOnUse" xlink:href="#linearGradient2544"/>
  <clipPath id="clipPath2024" clipPathUnits="userSpaceOnUse">
   <rect style="fill:#63452c" width="74" height="98" x="6" y="196"/>
  </clipPath>
  <linearGradient id="linearGradient914">
   <stop id="stop910" offset="0" style="stop-color:#f6f5f4;stop-opacity:0.43700787"/>
   <stop id="stop912" offset="1" style="stop-color:#deddda;stop-opacity:0"/>
  </linearGradient>
  <radialGradient id="radialGradient916" cx="64" cy="296" r="46" fx="64" fy="296" gradientTransform="matrix(2.6086955,0,0,1.8410361,-102.95652,-748.94671)" gradientUnits="userSpaceOnUse" xlink:href="#linearGradient914"/>
  <linearGradient id="linearGradient1150">
   <stop style="stop-color:#9a9996" id="stop1142" offset="0"/>
   <stop id="stop1144" offset=".119" style="stop-color:#c0bfbc"/>
   <stop style="stop-color:#deddda" id="stop1146" offset=".351"/>
   <stop id="stop1153" offset=".602" style="stop-color:#d2d1ce"/>
   <stop id="stop1151" offset=".853" style="stop-color:#bbbab7"/>
   <stop style="stop-color:#9a9996" id="stop1148" offset="1"/>
  </linearGradient>
  <linearGradient id="linearGradient2320" x1="28" x2="32" y1="203" y2="203" gradientUnits="userSpaceOnUse" xlink:href="#linearGradient1150"/>
  <linearGradient id="linearGradient2330" x1="37.047" x2="37.047" y1="180.897" y2="186.897" gradientUnits="userSpaceOnUse" xlink:href="#linearGradient2436"/>
  <linearGradient id="linearGradient2340" x1="71.047" x2="71.047" y1="181.897" y2="185.897" gradientUnits="userSpaceOnUse" xlink:href="#linearGradient2446"/>
  <radialGradient id="radialGradient2372" cx="183.217" cy="-92.152" r="3" fx="183.217" fy="-92.152" gradientTransform="matrix(0.94529382,0.25329072,-0.26736589,0.99782308,-14.508154,-46.647674)" gradientUnits="userSpaceOnUse" xlink:href="#linearGradient2386"/>
 </defs>
 <g id="layer1" transform="translate(0,-172)">
  <g id="layer9">
   <g transform="rotate(-15,90.680272,188.33016)">
    <path d="M 29.047254,183.89715 H 92.047253" style="fill:none;stroke:url(#linearGradient2340);stroke-width:4"/>
    <path style="fill:none;stroke:url(#linearGradient2330);stroke-width:6" d="M 29.047253,183.89714 H 61.047251"/>
    <rect width="1" height="4" x="61.05" y="181.9" style="opacity:0.2"/>
    <circle cx="183.897" cy="-92.047" r="3" transform="rotate(90)" style="fill:url(#radialGradient2372)"/>
   </g>
   <circle style="fill:#77767b" cx="30" cy="200" r="4"/>
   <circle cx="30" cy="200" r="4" style="fill:#3d3846"/>
   <path style="fill:url(#linearGradient2320)" d="M 29.970703,197.97266 A 2.0002,2.0002 0 0 0 28,200 v 6 a 2.0002,2.0002 0 1 0 4,0 v -6 a 2.0002,2.0002 0 0 0 -2.029297,-2.02734 z"/>
   <rect style="fill:#63452c" width="12" height="6" x="24" y="204" rx="2" ry="2"/>
   <g clip-path="url(#clipPath2024)">
    <rect style="fill:url(#linearGradient1660)" width="112" height="76" x="8" y="212" rx="8" ry="8"/>
    <rect width="112" height="72" x="8" y="208" rx="8" ry="8" style="fill:#e5a50a"/>
   </g>
   <path style="fill:url(#linearGradient1891)" d="M 80 46.021484 L 80 116 L 112 116 C 116.432 116 120 112.432 120 108 L 120 54.021484 C 120 49.589484 116.432 46.021484 112 46.021484 L 80 46.021484 z" transform="translate(0,172)"/>
   <path style="fill:#63452c" d="m 80,36 v 72 h 32 c 4.432,0 8,-3.568 8,-8 V 44 c 0,-4.432 -3.568,-8 -8,-8 z" transform="translate(0,172)"/>
   <g transform="translate(7.6e-6,-22)">
    <rect style="fill:#bd7b08" width="16" height="18" x="92" y="246" rx="8" ry="8"/>
    <circle style="fill:#e5a50a" cx="100" cy="254" r="8"/>
    <circle style="fill:#63452c" cx="97" cy="249" r="1.313"/>
   </g>
   <rect width="6" height="6" x="92" y="248" rx="2" ry="2" style="fill:#bd7b08"/>
   <rect style="fill:#e5a50a" width="6" height="4" x="92" y="248" rx="2" ry="2"/>
   <rect style="fill:#bd7b08" width="6" height="6" x="102" y="248" rx="2" ry="2"/>
   <rect width="6" height="4" x="102" y="248" rx="2" ry="2" style="fill:#e5a50a"/>
   <rect style="fill:#bd7b08" width="6" height="6" x="92" y="258" rx="2" ry="2"/>
   <rect width="6" height="4" x="92" y="258" rx="2" ry="2" style="fill:#e5a50a"/>
   <rect width="6" height="6" x="102" y="258" rx="2" ry="2" style="fill:#bd7b08"/>
   <rect style="fill:#e5a50a" width="6" height="4" x="102" y="258" rx="2" ry="2"/>
  </g>
  <path d="m 43.999997,222 a 22,22 0 0 0 -12.601562,4 h 25.230468 a 22,22 0 0 0 -12.628906,-4 z m -16.957031,8 a 22,22 0 0 0 -2.613281,4 H 63.5957 a 22,22 0 0 0 -2.648437,-4 z m -4.1875,8 a 22,22 0 0 0 -0.75586,4 h 43.791016 a 22,22 0 0 0 -0.730469,-4 z m -0.746094,8 a 22,22 0 0 0 0.730469,4 h 42.304687 a 22,22 0 0 0 0.75586,-4 z m 2.294922,8 a 22,22 0 0 0 2.648437,4 h 33.904297 a 22,22 0 0 0 2.613281,-4 z m 6.966797,8 a 22,22 0 0 0 12.628906,4 22,22 0 0 0 12.601562,-4 z" style="fill:#63452c"/>
 </g>
</svg>
